!!!COA:	Busnoys, Antoine
!!!CDT:	~1430///-1492/11/06
!!!OTL:	Quant ce viendra
!!!AGN:	Song; Chanson
!!!SCT:	Bus3073
!!!SCA:	Bus3073
!!!voices:	4
**kern	**kern	**kern	**kern
*staff4	*staff3	*staff2	*staff1
*Ivox	*Ivox	*Ivox	*Ivox
*I"Contratenor	*I"Tenor	*I"Contratenor	*I"Cantus
*I'Ct	*I'T	*I'Ct	*I'Cn
*clefF4	*clefGv2	*clefGv2	*clefG2
*k[b-e-]	*k[b-]	*k[b-]	*k[b-]
*M3/1	*M3/1	*M3/1	*M3/1
*met(O)	*met(O)	*met(O)	*met(O)
=1-	=1-	=1-	=1-
1r	1r	1r	1r
1r	1r	1r	1r
1GG	1G	1d	1g
=2	=2	=2	=2
2.C	1G	1e	1.g
4BB-	.	.	.
1GG	1.B-	1d	.
.	.	.	2f
2G	.	2B-	2d
2E-	2c	2G	2e-i
=3	=3	=3	=3
1D	1d	1A	1f
1E-	2B-	1G	1g
.	1c	.	.
1F	.	2r	1a
.	2A	2c	.
=4	=4	=4	=4
2r	1G	2B-	1b-
2G	.	1G	.
2E-	1.c	.	2g
2C	.	2E	2.a
1D	.	1F	.
.	.	.	4g
.	2A	.	4f
.	.	.	4e
=5	=5	=5	=5
0GG	0B-	0G	0d
1r	1r	1r	1r
=6	=6	=6	=6
0GG	1B-	0g	1dd
.	1B-	.	1dd
1F	1A	2.c	1cc
.	.	4d	.
=7	=7	=7	=7
2G	2G	2e	2b-
2D	2F	2f	2.a
1G	2B-	0d	.
.	.	.	4g
.	2G	.	1g
1D	1A	.	.
.	.	.	2f
=8	=8	=8	=8
1GG	1G	2r	2.b-
.	.	2e	.
.	.	.	4a
2FF	2c	4.f	4a
.	.	.	4g
.	.	8e	.
2GG	2G	2.d	1g
1D	1A	.	.
.	.	4c	.
.	.	2A	2f#i
=9	=9	=9	=9
2r	1G	1B-	0g
2GG	.	.	.
2C	2r	2e-i	.
2BB-	2G	4d	.
.	.	4c	.
2AA	2A	2.c	1r
[2D	2F	.	.
.	.	4B-	.
=10	=10	=10	=10
2D]	1E	4B-	2r
.	.	4A	.
2C	.	1c	2g
2F	1D	.	2a
4E-	.	2F	2f
4D	.	.	.
2.C	2r	2.G	1e
.	[2G	.	.
4BB-	.	4A	.
=11	=11	=11	=11
2GG	2G]	1B-	1d
2D	2F	.	.
2E-	2G	2r	2r
2G	2B-	1d	1g
1D	1A	.	.
.	.	2c	2f
=12	=12	=12	=12
1GG	2r	2B-	2g
.	1d	2G	2b-
1r	.	1A	1a
.	2c	.	.
1GG	2d	1G	2r
.	2B-	.	[2dd
=13	=13	=13	=13
1FF	1A	1r	2dd]
.	.	.	2cc
2BB-	2r	2.d	2dd
4AA	2G	.	2b-
4GG	.	4e	.
1FF	1c	1f	1a
=14	=14	=14	=14
2GG	2B-	2d	2r
2BB-	4A	1d	2g
.	4G	.	.
1AA	1F	.	1cc
.	.	2c	.
1GG	2G	2e-i	2b-
.	[2B-	[2d	4a
.	.	.	4g
=15	=15	=15	=15
2r	2B-]	2d]	2f
1F	1A	2c	1cc
.	.	2A	.
1G	2G	2B-	2.b-
.	2B-	2.G	.
.	.	.	4a
2E-	2c	.	2g
.	.	4F	.
=16	=16	=16	=16
0DN	0dN	0AN	0f#Ny
1r	1r	1r	1r
=17	=17	=17	=17
1GG	0d	1G	0b-
2.BB-	.	2d	.
.	.	2e	.
4AA	.	.	.
1FF	2.c	1f	1a
.	4B-	.	.
=18	=18	=18	=18
0GG	0G	[0.d	1.b-
.	.	.	2a
[1D	1A	.	[1f
=19	=19	=19	=19
1D]	1A	0d]	1f]
0GG	1.B-	.	1.g
.	.	1d	.
.	2A	.	2f
=20	=20	=20	=20
1r	1F	2.c	1a
.	.	4A	.
[0GG	1G	2.B-	2r
.	.	.	1dd
.	.	4c	.
.	1D	1d	.
.	.	.	2cc
=21	=21	=21	=21
1GG]	2r	1G	1b-
.	1d	.	.
1r	.	1F	2a
.	2c	.	1a
1GG	1B-	1G	.
.	.	.	2g
=22	=22	=22	=22
1D	0A	2r	0.a
.	.	1D	.
1D	.	.	.
.	.	2F	.
2C	1r	2E	.
2AA	.	2F	.
=23	=23	=23	=23
2BB-	1d	2G	1r
1GG	.	2B-	.
.	2c	1A	1r
2FF	2A	.	.
2GG	2B-	1G	1dd
2BB-	[2G	.	.
=24	=24	=24	=24
1AA	2G]	2.c	2cc
.	2F	.	2a
.	.	4d	.
1GG	2G	1B-	2b-
.	2B-	.	1g
1D	1A	1r	.
.	.	.	2f
=25	=25	=25	=25
1GG	2r	1B-	2g
.	1d	.	2b-
1r	.	1F	1a
.	2c	.	.
1G	2B-	2.d	2r
.	2G	.	[2dd
.	.	4e	.
=26	=26	=26	=26
2D	1A	2.f	2dd]
2F	.	.	2cc
.	.	4d	.
2G	1G	4e	2b-
.	.	2d	.
2E-	.	.	2g
.	.	4c	.
1D	2r	1f	1a
.	2F	.	.
=27	=27	=27	=27
1G	1B-	0d	1g
1D	1A	.	2r
.	.	.	2f
1GG	1d	1g	1b-
=28	=28	=28	=28
1r	2.c	2.e	1a
.	4B-	4f	.
1GG	1G	1g	1dd
1F	2r	2a	2.cc
.	2A	2f	.
.	.	.	4b-
=29	=29	=29	=29
1E-	2.B-	2g	1g
.	.	2e-i	.
.	4c	.	.
1D	1d	1f	2b-
.	.	.	1a
2F	2c	2r	.
[2G	2B-	[2d	[2g
=30	=30	=30	=30
4G]	1G	2d]	2g]
4A	.	.	.
2.B-	.	2B-	1dd
.	2r	2.d	.
4A	.	.	.
2G	1d	.	2b-
.	.	4e	.
2.F	.	2.f	1a
.	2c	.	.
4E-	.	4g	.
=31	=31	=31	=31
1D	2d	2.f	2b-
.	1B-	.	2.dd
.	.	4d	.
1BB-	.	1d	.
.	.	.	4cc
.	1G	.	2.b-
1GG	.	2r	.
.	.	.	4a
.	2B-	2d	[2g
=32	=32	=32	=32
1D	1A	1d	2g]
.	.	.	2f#i
0GGl	0Gl	2.e-i	0gl
.	.	4d	.
.	.	1dl	.
==	==	==	==
*-	*-	*-	*-
!!!RDF**kern: l=long note in original notation
!!!RDF**kern: i=editorial accidental
!!!RDF**kern: N=signum congruentiae
!!!ENC:	Chris Gage 02-12-2015
!!!END:	2015/02/20/
!!!EED:	Jesse Rodin
!!!EEV:	2015/05/10/
!!!ONB:	Translated from MusicXML and edited on 2015/05/10/ by Craig Sapp
!!muse2ps: C^Busnoys?/Ockeghem?^i2I150v85,85,85,150Q16
